img/svg/employment6.svg

<svg width="80" height="80" viewBox="0 0 80 80" fill="none" xmlns="http://www.w3.org/2000/svg">
<circle cx="40" cy="40" r="40" fill="#006AFF"/>
<path d="M40.769 23.0199C41.0134 23.0598 41.2675 23.0997 41.5119 23.1296C43.203 23.3689 44.7377 23.997 46.1062 25.0438C47.9635 26.4695 49.1365 28.3738 49.7914 30.617C50.0847 31.614 50.2411 32.6309 50.3291 33.6578C50.417 34.6249 50.4268 35.592 50.3584 36.5491C50.2215 38.3836 49.8599 40.1781 49.244 41.9129C48.4425 44.1861 47.3476 46.2997 45.9498 48.2538C45.8423 48.4033 45.7641 48.4233 45.5979 48.3535C44.4249 47.8849 43.2812 47.3565 42.2646 46.5689C41.9811 46.3495 41.7269 46.1003 41.4435 45.8809C41.3066 45.7713 41.2968 45.6716 41.3848 45.512C42.2939 43.8969 43.0173 42.202 43.5842 40.4374C44.0241 39.0615 44.3662 37.6558 44.5813 36.2201C44.7768 34.9639 44.8745 33.6877 44.8452 32.4116C44.7963 30.617 44.5422 28.8523 43.8775 27.1774C43.1834 25.4127 42.0984 23.987 40.4268 23.0897C40.3877 23.0698 40.3682 23.0299 40.3389 23C40.4953 23.0199 40.6321 23.0199 40.769 23.0199Z" fill="white"/>
<path d="M36.1053 40.3667C36.5452 41.1144 36.9362 41.8622 37.4054 42.5501C39.2822 45.3716 41.7064 47.545 44.7856 48.9209C45.9195 49.4194 47.0925 49.7583 48.3242 49.8979C49.292 50.0176 50.2597 50.0076 51.2372 49.9577C52.7035 49.888 54.0525 49.4393 55.3135 48.6916C55.333 48.6816 55.3526 48.6816 55.4014 48.6716C55.3037 48.9907 55.2157 49.2898 55.118 49.5789C54.6487 50.8949 54.0036 52.1112 53.0749 53.1481C51.853 54.524 50.3477 55.4013 48.5686 55.7901C47.4445 56.0394 46.3105 56.0793 45.1766 55.9397C42.42 55.5907 39.9567 54.5339 37.8061 52.7393C35.9977 51.2339 34.5706 49.4094 33.3487 47.3955C32.6449 46.229 32.0193 45.0226 31.4523 43.7764C31.4327 43.7266 31.4327 43.6169 31.4718 43.587C32.5764 42.5401 33.7495 41.593 35.0887 40.8652C35.4112 40.6857 35.7729 40.5262 36.1053 40.3667Z" fill="white"/>
<path d="M25.5883 51.6234C25.3244 51.085 25.0409 50.5566 24.8063 50.0082C24.1709 48.5028 23.9363 46.9275 24.0145 45.3024C24.1416 42.4311 25.0702 39.8389 26.8004 37.5558C28.472 35.3425 30.6323 33.847 33.2129 32.9398C34.6108 32.4413 36.0477 32.1023 37.5238 31.9029C38.8336 31.7234 40.1533 31.6437 41.4729 31.7135C42.3038 31.7533 43.1249 31.8829 43.9558 31.9727C44.0731 31.9826 44.0927 32.0425 44.0829 32.1521C44.0145 33.0195 43.9852 33.8869 43.8874 34.7543C43.7897 35.6217 43.6137 36.489 43.4866 37.3564C43.4671 37.506 43.4084 37.5259 43.2813 37.5259C40.3195 37.5359 37.5629 38.3335 34.9725 39.7592C33.4573 40.5966 32.0692 41.6235 30.7887 42.8C29.5277 43.9565 28.3938 45.2326 27.426 46.6583C26.556 47.9445 25.9695 49.3402 25.7447 50.8856C25.7154 51.1149 25.7056 51.3542 25.686 51.5934C25.6372 51.6034 25.6176 51.6134 25.5883 51.6234Z" fill="white"/>
<path d="M35.9204 53.9652C35.5782 54.1846 35.2459 54.4239 34.8842 54.6233C33.9458 55.1317 32.9487 55.4009 31.893 55.4906C30.7591 55.5804 29.6838 55.4109 28.677 54.8326C27.6897 54.2643 27.0348 53.4069 26.6242 52.3501C26.5753 52.2105 26.5558 52.051 26.5558 51.8915C26.546 49.7879 27.1618 47.8936 28.374 46.2087C28.3935 46.1887 28.4131 46.1688 28.4522 46.1289C28.6086 46.9066 28.8138 47.6443 29.1169 48.3422C29.9575 50.2963 31.199 51.9015 33.0269 52.9882C33.9067 53.5066 34.8451 53.8257 35.8617 53.8955C35.891 53.9254 35.9106 53.9453 35.9204 53.9652Z" fill="white"/>
<path d="M32.4706 29.5714C32.451 28.9632 32.4901 28.365 32.6172 27.7568C32.842 26.7299 33.2819 25.8327 34.0444 25.1148C34.9926 24.2175 36.1069 23.6592 37.3973 23.4798C39.0297 23.2504 40.4569 23.7091 41.6788 24.8157C42.1285 25.2245 42.4413 25.7429 42.7052 26.2813C42.9789 26.8296 43.2233 27.4079 43.4774 27.9662C43.4579 27.9762 43.4481 27.9961 43.4286 28.0061C43.2135 27.9164 42.9985 27.8167 42.7736 27.7369C41.8059 27.368 40.8088 27.1487 39.7824 27.0689C38.0913 26.9393 36.4686 27.1686 34.9046 27.8565C34.0639 28.2254 33.321 28.7538 32.6661 29.4118C32.6074 29.4717 32.5683 29.5415 32.5292 29.6112C32.5097 29.6013 32.4901 29.5813 32.4706 29.5714Z" fill="white"/>
<path d="M53.0951 39.1813C53.6816 39.5701 54.1605 40.0686 54.5613 40.6369C55.2554 41.6339 55.6659 42.7505 55.881 43.9469C55.9885 44.565 56.0276 45.1931 55.9787 45.8113C55.9494 46.2001 55.8712 46.5989 55.7637 46.9777C55.7148 47.1472 55.5584 47.2968 55.4215 47.4264C54.532 48.3037 53.4372 48.7723 52.2446 49.0116C51.4724 49.1711 50.7001 49.2409 49.9181 49.2509C49.8595 49.2509 49.8106 49.2509 49.752 49.2509C52.4499 46.4394 53.5447 43.0795 53.0951 39.1813Z" fill="white"/>
<path d="M31.9037 32.2307C31.0337 32.6893 30.1931 33.138 29.3426 33.5866C28.9907 31.9914 30.8382 27.2258 32.0894 26.5479C31.7082 28.4421 31.4052 30.3264 31.9037 32.2307Z" fill="white"/>
<path d="M51.4336 37.4254C51.4727 36.7874 51.5313 36.1991 51.5509 35.6009C51.5704 35.0127 51.5509 34.4245 51.5509 33.7964C53.2713 35.3816 54.2293 37.3856 54.7669 39.6587C53.8481 38.5819 52.675 37.904 51.4336 37.4254Z" fill="white"/>
<path d="M37.1721 53.7566C38.0225 54.285 38.8436 54.7835 39.6648 55.292C38.5113 56.0895 35.2073 56.7476 32.959 56.259C33.0567 56.2192 33.1154 56.1992 33.1838 56.1793C33.9756 55.9201 34.7674 55.6708 35.4908 55.2521C36.1261 54.8932 36.6638 54.4345 37.1037 53.8463C37.133 53.8064 37.1721 53.7666 37.1721 53.7566Z" fill="white"/>
</svg>

<svg width="80" height="80" viewBox="0 0 80 80" fill="none" xmlns="http://www.w3.org/2000/svg"><circle cx="40" cy="40" r="40" fill="#006AFF"/><path d="M40.769 23.02c.244.04.498.08.743.11a9.66 9.66 0 014.594 1.914c1.858 1.425 3.03 3.33 3.685 5.573.294.997.45 2.014.538 3.04.088.968.098 1.935.03 2.892a20.539 20.539 0 01-1.115 5.364 25.294 25.294 0 01-3.294 6.34c-.108.15-.186.17-.352.1-1.173-.468-2.317-.997-3.333-1.784-.284-.22-.538-.469-.822-.688-.136-.11-.146-.21-.058-.369a27.374 27.374 0 002.2-5.075c.44-1.375.781-2.781.996-4.217.196-1.256.293-2.532.264-3.808-.049-1.795-.303-3.56-.968-5.235-.694-1.764-1.779-3.19-3.45-4.087-.04-.02-.059-.06-.088-.09.156.02.293.02.43.02z" fill="#fff"/><path d="M36.105 40.367c.44.747.831 1.495 1.3 2.183 1.877 2.822 4.301 4.995 7.38 6.37 1.135.5 2.308.838 3.54.978.967.12 1.935.11 2.912.06 1.466-.07 2.816-.519 4.076-1.266.02-.01.04-.01.088-.02-.097.319-.185.618-.283.907-.47 1.316-1.114 2.532-2.043 3.57a8.238 8.238 0 01-4.506 2.641 9.952 9.952 0 01-3.392.15c-2.757-.35-5.22-1.406-7.37-3.2-1.81-1.506-3.236-3.33-4.458-5.345a35.213 35.213 0 01-1.897-3.619c-.02-.05-.02-.16.02-.189 1.104-1.047 2.277-1.994 3.617-2.722.322-.18.684-.339 1.016-.498z" fill="#fff"/><path d="M25.588 51.623c-.264-.538-.547-1.066-.782-1.615-.635-1.505-.87-3.08-.791-4.706.127-2.87 1.055-5.463 2.785-7.746 1.672-2.213 3.832-3.709 6.413-4.616a21.259 21.259 0 014.31-1.037c1.31-.18 2.63-.26 3.95-.19.83.04 1.652.17 2.483.26.117.01.137.07.127.18-.069.867-.098 1.734-.196 2.601-.097.868-.273 1.735-.4 2.602-.02.15-.079.17-.206.17-2.962.01-5.718.807-8.309 2.233A21.705 21.705 0 0030.79 42.8a22.018 22.018 0 00-3.363 3.858c-.87 1.286-1.456 2.682-1.681 4.228-.03.229-.04.468-.059.707-.049.01-.068.02-.098.03z" fill="#fff"/><path d="M35.92 53.965c-.342.22-.674.459-1.036.658-.938.509-1.935.778-2.991.868-1.134.09-2.21-.08-3.216-.658-.987-.569-1.642-1.426-2.053-2.483a1.405 1.405 0 01-.068-.459 9.43 9.43 0 011.818-5.682l.078-.08c.157.778.362 1.515.665 2.213.84 1.954 2.082 3.56 3.91 4.646.88.519 1.818.838 2.835.907.029.03.049.05.058.07zm-3.45-24.394a7.614 7.614 0 01.147-1.814c.225-1.027.665-1.924 1.427-2.642.949-.897 2.063-1.456 3.353-1.635 1.633-.23 3.06.23 4.282 1.336.45.409.762.927 1.026 1.465.274.549.518 1.127.772 1.685-.02.01-.029.03-.048.04-.215-.09-.43-.19-.655-.27a10.671 10.671 0 00-2.992-.667c-1.69-.13-3.313.1-4.877.788a7.276 7.276 0 00-2.239 1.555c-.059.06-.098.13-.137.2-.02-.01-.039-.03-.058-.04zm20.625 9.61a5.559 5.559 0 011.466 1.456c.694.997 1.105 2.114 1.32 3.31.108.618.147 1.246.098 1.864-.03.39-.108.788-.215 1.167-.05.17-.206.319-.343.448-.889.878-1.984 1.346-3.176 1.586-.773.16-1.545.229-2.327.239h-.166c2.698-2.812 3.793-6.171 3.343-10.07zM31.904 32.23c-.87.46-1.71.908-2.561 1.357-.352-1.596 1.495-6.361 2.746-7.04-.38 1.895-.684 3.78-.185 5.684zm19.53 5.195c.039-.638.097-1.226.117-1.824.02-.588 0-1.176 0-1.805 1.72 1.586 2.678 3.59 3.216 5.863-.919-1.077-2.092-1.755-3.333-2.234zM37.172 53.757c.85.528 1.672 1.026 2.493 1.535-1.154.797-4.458 1.456-6.706.967.098-.04.156-.06.225-.08.792-.259 1.583-.508 2.307-.927a5.122 5.122 0 001.613-1.406c.029-.04.068-.08.068-.09z" fill="#fff"/></svg>
